svgs/light/smoking.svg

<svg xmlns="http://www.w3.org/2000/svg" viewBox="0 0 640 512"><!--! Font Awesome Pro 6.6.0 by @fontawesome - https://fontawesome.com License - https://fontawesome.com/license (Commercial License) Copyright 2024 Fonticons, Inc. --><path d="M464 0c-8.8 0-16 7.2-16 16l0 27c0 46.7 18.5 91.4 51.5 124.5l21 21c15 15 23.4 35.4 23.4 56.6l0 27c0 8.8 7.2 16 16 16s16-7.2 16-16l0-27c0-29.7-11.8-58.2-32.8-79.2l-21-21C495.2 117.8 480 81.2 480 43l0-27c0-8.8-7.2-16-16-16zM624 288c8.8 0 16-7.2 16-16l0-27c0-46.7-18.5-91.4-51.5-124.5l-21-21C552.4 84.5 544 64.2 544 43l0-27c0-8.8-7.2-16-16-16s-16 7.2-16 16l0 27c0 29.7 11.8 58.2 32.8 79.2l21 21c27 27 42.2 63.6 42.2 101.8l0 27c0 8.8 7.2 16 16 16zM64 384l128 0 0 96L64 480c-17.7 0-32-14.3-32-32l0-32c0-17.7 14.3-32 32-32zm160 0l256 0 0 96-256 0 0-96zM64 512l144 0 288 0c8.8 0 16-7.2 16-16l0-128c0-8.8-7.2-16-16-16l-288 0L64 352c-35.3 0-64 28.7-64 64l0 32c0 35.3 28.7 64 64 64zM560 352c-8.8 0-16 7.2-16 16l0 128c0 8.8 7.2 16 16 16s16-7.2 16-16l0-128c0-8.8-7.2-16-16-16zm64 0c-8.8 0-16 7.2-16 16l0 128c0 8.8 7.2 16 16 16s16-7.2 16-16l0-128c0-8.8-7.2-16-16-16z"/></svg>

<svg xmlns="http://www.w3.org/2000/svg" viewBox="0 0 640 512"><!--! Font Awesome Pro 6.4.0 by @fontawesome - https://fontawesome.com License - https://fontawesome.com/license (Commercial License) Copyright 2023 Fonticons, Inc. --><path d="M464 0c-8.8 0-16 7.2-16 16V43c0 46.7 18.5 91.4 51.5 124.5l21 21c15 15 23.4 35.4 23.4 56.6v27c0 8.8 7.2 16 16 16s16-7.2 16-16V245c0-29.7-11.8-58.2-32.8-79.2l-21-21C495.2 117.8 480 81.2 480 43V16c0-8.8-7.2-16-16-16zM624 288c8.8 0 16-7.2 16-16V245c0-46.7-18.5-91.4-51.5-124.5l-21-21C552.4 84.5 544 64.2 544 43V16c0-8.8-7.2-16-16-16s-16 7.2-16 16V43c0 29.7 11.8 58.2 32.8 79.2l21 21c27 27 42.2 63.6 42.2 101.8v27c0 8.8 7.2 16 16 16zM64 384H192v96H64c-17.7 0-32-14.3-32-32V416c0-17.7 14.3-32 32-32zm160 0H480v96H224V384zM64 512H208 496c8.8 0 16-7.2 16-16V368c0-8.8-7.2-16-16-16H208 64c-35.3 0-64 28.7-64 64v32c0 35.3 28.7 64 64 64zM560 352c-8.8 0-16 7.2-16 16V496c0 8.8 7.2 16 16 16s16-7.2 16-16V368c0-8.8-7.2-16-16-16zm64 0c-8.8 0-16 7.2-16 16V496c0 8.8 7.2 16 16 16s16-7.2 16-16V368c0-8.8-7.2-16-16-16z"/></svg>
